storage/app/icons/phosphoricons/fill/images-square-fill.svg

<svg xmlns="http://www.w3.org/2000/svg" fill="currentColor" viewBox="0 0 256 256"><path d="M208 32H80a16 16 0 0 0-16 16v16H48a16 16 0 0 0-16 16v128a16 16 0 0 0 16 16h128a16 16 0 0 0 16-16v-16h16a16 16 0 0 0 16-16V48a16 16 0 0 0-16-16M80 48h128v69.38l-16.7-16.7a16 16 0 0 0-22.62 0L93.37 176H80Zm96 160H48V80h16v96a16 16 0 0 0 16 16h96ZM104 88a16 16 0 1 1 16 16 16 16 0 0 1-16-16"/></svg>

<svg xmlns="http://www.w3.org/2000/svg" viewBox="0 0 256 256" fill="currentColor"><path d="M208,32H80A16,16,0,0,0,64,48V64H48A16,16,0,0,0,32,80V208a16,16,0,0,0,16,16H176a16,16,0,0,0,16-16V192h16a16,16,0,0,0,16-16V48A16,16,0,0,0,208,32ZM80,48H208v69.38l-16.7-16.7a16,16,0,0,0-22.62,0L93.37,176H80Zm96,160H48V80H64v96a16,16,0,0,0,16,16h96ZM104,88a16,16,0,1,1,16,16A16,16,0,0,1,104,88Z"/></svg>
